polaris-icons/icons/new-icons/ProductReturnsMinor.svg

<svg width="20" height="20" viewBox="0 0 20 20" fill="none" xmlns="http://www.w3.org/2000/svg">
<path d="M8.57473 4.64885C9.28162 3.91477 10.2568 3.5 11.2759 3.5H13.25C15.0449 3.5 16.5 4.95507 16.5 6.75V9.12148C16.5 9.88665 16.1886 10.6189 15.6374 11.1496C15.3391 11.4369 14.8643 11.428 14.577 11.1296C14.2896 10.8312 14.2986 10.3565 14.597 10.0691C14.8545 9.82114 15 9.47901 15 9.12148V6.75C15 5.7835 14.2165 5 13.25 5H11.2759C10.6645 5 10.0793 5.24886 9.65521 5.68931L5.4016 10.1065C4.92912 10.5972 4.93646 11.3758 5.41812 11.8575L9.53034 15.9697C9.82323 16.2626 9.82323 16.7374 9.53034 17.0303C9.23744 17.3232 8.76257 17.3232 8.46968 17.0303L4.35746 12.9181C3.29782 11.8585 3.28166 10.1455 4.32112 9.06605L8.57473 4.64885Z" fill="#4A4A4A"/>
<path d="M14 7C14 7.55228 13.5523 8 13 8C12.4477 8 12 7.55228 12 7C12 6.44772 12.4477 6 13 6C13.5523 6 14 6.44772 14 7Z" fill="#4A4A4A"/>
<path d="M17.25 12C17.25 11.5858 16.9142 11.25 16.5 11.25C16.0858 11.25 15.75 11.5858 15.75 12V12.5C15.75 13.4665 14.9665 14.25 14 14.25H13.0607L13.2803 14.0303C13.5732 13.7374 13.5732 13.2626 13.2803 12.9697C12.9874 12.6768 12.5126 12.6768 12.2197 12.9697L10.7197 14.4697C10.4268 14.7626 10.4268 15.2374 10.7197 15.5303L12.2197 17.0303C12.5126 17.3232 12.9874 17.3232 13.2803 17.0303C13.5732 16.7374 13.5732 16.2626 13.2803 15.9697L13.0607 15.75H14C15.7949 15.75 17.25 14.2949 17.25 12.5V12Z" fill="#4A4A4A"/>
</svg>

<svg viewBox="0 0 20 20" xmlns="http://www.w3.org/2000/svg"><path d="M8.575 4.649a3.75 3.75 0 0 1 2.7-1.149h1.975a3.25 3.25 0 0 1 3.25 3.25v2.371c0 .766-.311 1.498-.863 2.029a.75.75 0 1 1-1.04-1.08c.258-.249.403-.591.403-.949v-2.371a1.75 1.75 0 0 0-1.75-1.75h-1.974a2.25 2.25 0 0 0-1.62.69l-4.254 4.417a1.25 1.25 0 0 0 .016 1.75l4.112 4.113a.75.75 0 1 1-1.06 1.06l-4.113-4.112a2.75 2.75 0 0 1-.036-3.852l4.254-4.417Z" fill="#5C5F62"/><path d="M14 7a1 1 0 1 1-2 0 1 1 0 0 1 2 0Z" fill="#5C5F62"/><path d="M17.25 12a.75.75 0 0 0-1.5 0v.5a1.75 1.75 0 0 1-1.75 1.75h-.94l.22-.22a.75.75 0 1 0-1.06-1.06l-1.5 1.5a.75.75 0 0 0 0 1.06l1.5 1.5a.75.75 0 1 0 1.06-1.06l-.22-.22h.94a3.25 3.25 0 0 0 3.25-3.25v-.5Z" fill="#5C5F62"/></svg>
